assets/icons/24px/outline/games-24px.svg

<svg width="24" height="24" viewBox="0 0 24 24" fill="none" xmlns="http://www.w3.org/2000/svg">
<path d="M7.33333 13.1667C7.33333 13.0117 7.33333 12.9342 7.35037 12.8706C7.39661 12.6981 7.53139 12.5633 7.70394 12.517C7.76752 12.5 7.84502 12.5 8.00002 12.5V12.5C8.15501 12.5 8.23251 12.5 8.29609 12.5171C8.46863 12.5633 8.6034 12.6981 8.64963 12.8706C8.66667 12.9342 8.66667 13.0117 8.66667 13.1667V13.6333C8.66667 13.7276 8.66667 13.7747 8.69596 13.804C8.72525 13.8333 8.77239 13.8333 8.86667 13.8333H9.33332C9.48833 13.8333 9.56583 13.8333 9.62942 13.8504C9.80196 13.8966 9.93672 14.0314 9.98296 14.2039C10 14.2675 10 14.345 10 14.5V14.5C10 14.655 10 14.7325 9.98296 14.7961C9.93672 14.9686 9.80196 15.1034 9.62942 15.1496C9.56583 15.1667 9.48833 15.1667 9.33332 15.1667H8.86667C8.77239 15.1667 8.72525 15.1667 8.69596 15.196C8.66667 15.2253 8.66667 15.2724 8.66667 15.3667V15.8333C8.66667 15.9883 8.66667 16.0658 8.64963 16.1294C8.60339 16.3019 8.46861 16.4367 8.29606 16.483C8.23248 16.5 8.15498 16.5 7.99998 16.5V16.5C7.84499 16.5 7.76749 16.5 7.70391 16.4829C7.53137 16.4367 7.3966 16.3019 7.35037 16.1294C7.33333 16.0658 7.33333 15.9883 7.33333 15.8333V15.3666C7.33333 15.2724 7.33333 15.2252 7.30404 15.1959C7.27475 15.1666 7.22761 15.1666 7.13333 15.1666L6.66668 15.1666C6.51167 15.1666 6.43417 15.1666 6.37058 15.1496C6.19804 15.1034 6.06328 14.9686 6.01704 14.7961C6 14.7325 6 14.655 6 14.5V14.5C6 14.345 6 14.2675 6.01704 14.2039C6.06327 14.0313 6.19804 13.8966 6.37058 13.8503C6.43417 13.8333 6.51167 13.8333 6.66668 13.8333L7.13333 13.8333C7.22761 13.8333 7.27476 13.8333 7.30404 13.804C7.33333 13.7747 7.33333 13.7276 7.33333 13.6333V13.1667Z" fill="white"/>
<path d="M17.1667 12.75C17.1667 13.1642 16.8309 13.5 16.4167 13.5C16.0025 13.5 15.6667 13.1642 15.6667 12.75C15.6667 12.3358 16.0025 12 16.4167 12C16.8309 12 17.1667 12.3358 17.1667 12.75Z" fill="white"/>
<circle cx="16.4167" cy="16.0833" r="0.75" fill="white"/>
<circle cx="14.75" cy="14.4167" r="0.75" fill="white"/>
<circle cx="18.0833" cy="14.4167" r="0.75" fill="white"/>
<path d="M12 10V7.56155C12 6.38242 12 5.79285 12.3846 5.49257C12.7692 5.19229 13.3411 5.33529 14.4851 5.62127L15.5149 5.87873C16.6589 6.16471 17.2308 6.30771 17.6154 6.00743C18 5.70715 18 5.11758 18 3.93845V3" stroke="white" stroke-width="2" stroke-linecap="round"/>
<path d="M3 15C3 17.3463 4.45449 19.3151 6.41627 19.854C7.05981 20.0308 7.67613 19.6086 7.95 19C8.22387 18.3914 8.82921 18 9.49659 18H14.5034C15.1708 18 15.7761 18.3914 16.05 19C16.3239 19.6086 16.9402 20.0308 17.5837 19.854C19.5455 19.3151 21 17.3463 21 15C21 12.2386 18.9853 10 16.5 10H7.5C5.01472 10 3 12.2386 3 15Z" stroke="white" stroke-width="2"/>
</svg>

<svg width="24" height="24" fill="none" xmlns="http://www.w3.org/2000/svg"><path d="M7.333 13.167c0-.155 0-.233.017-.296a.5.5 0 0 1 .354-.354c.064-.017.141-.017.296-.017s.233 0 .296.017a.5.5 0 0 1 .354.354c.017.063.017.14.017.296v.466c0 .095 0 .142.029.171.03.03.076.03.17.03h.467c.155 0 .233 0 .296.016a.5.5 0 0 1 .354.354c.017.063.017.141.017.296s0 .232-.017.296a.5.5 0 0 1-.354.354c-.063.017-.14.017-.296.017h-.466c-.095 0-.142 0-.171.029-.03.03-.03.076-.03.17v.467c0 .155 0 .233-.016.296a.5.5 0 0 1-.354.354c-.064.017-.141.017-.296.017s-.233 0-.296-.017a.5.5 0 0 1-.354-.354c-.017-.063-.017-.14-.017-.296v-.466c0-.095 0-.142-.029-.171-.03-.03-.076-.03-.17-.03h-.467c-.155 0-.233 0-.296-.016a.5.5 0 0 1-.354-.354C6 14.733 6 14.655 6 14.5s0-.232.017-.296a.5.5 0 0 1 .354-.354c.063-.017.14-.017.296-.017h.466c.095 0 .142 0 .171-.029.03-.03.03-.076.03-.17v-.467zm9.834-.417a.75.75 0 1 1-1.5 0 .75.75 0 0 1 1.5 0z" fill="#fff"/><circle cx="16.417" cy="16.083" r=".75" fill="#fff"/><circle cx="14.75" cy="14.417" r=".75" fill="#fff"/><circle cx="18.083" cy="14.417" r=".75" fill="#fff"/><path d="M12 10V7.562c0-1.18 0-1.77.385-2.07.384-.3.956-.157 2.1.13l1.03.257c1.144.286 1.716.429 2.1.128.385-.3.385-.89.385-2.069V3" stroke="#fff" stroke-width="2" stroke-linecap="round"/><path d="M3 15c0 2.346 1.454 4.315 3.416 4.854.644.177 1.26-.245 1.534-.854s.88-1 1.547-1h5.006c.668 0 1.273.391 1.547 1s.89 1.03 1.534.854C19.546 19.315 21 17.346 21 15c0-2.761-2.015-5-4.5-5h-9C5.015 10 3 12.239 3 15z" stroke="#fff" stroke-width="2"/></svg>
